assets/icons/certificate-2.svg

<svg width="20" height="20" viewBox="0 0 20 20" fill="none" xmlns="http://www.w3.org/2000/svg">
<path d="M10 10.625C10 10.7908 9.93415 10.9497 9.81694 11.0669C9.69973 11.1842 9.54076 11.25 9.375 11.25H5.625C5.45924 11.25 5.30027 11.1842 5.18306 11.0669C5.06585 10.9497 5 10.7908 5 10.625C5 10.4592 5.06585 10.3003 5.18306 10.1831C5.30027 10.0658 5.45924 10 5.625 10H9.375C9.54076 10 9.69973 10.0658 9.81694 10.1831C9.93415 10.3003 10 10.4592 10 10.625ZM9.375 7.5H5.625C5.45924 7.5 5.30027 7.56585 5.18306 7.68306C5.06585 7.80027 5 7.95924 5 8.125C5 8.29076 5.06585 8.44973 5.18306 8.56694C5.30027 8.68415 5.45924 8.75 5.625 8.75H9.375C9.54076 8.75 9.69973 8.68415 9.81694 8.56694C9.93415 8.44973 10 8.29076 10 8.125C10 7.95924 9.93415 7.80027 9.81694 7.68306C9.69973 7.56585 9.54076 7.5 9.375 7.5ZM18.125 12.6148V17.5C18.126 17.6102 18.0978 17.7187 18.0434 17.8145C17.9889 17.9103 17.9101 17.99 17.8149 18.0455C17.7198 18.101 17.6116 18.1304 17.5014 18.1306C17.3912 18.1309 17.2829 18.102 17.1875 18.0469L15.3125 16.9734L13.4375 18.0469C13.3421 18.102 13.2338 18.1309 13.1236 18.1306C13.0134 18.1304 12.9052 18.101 12.8101 18.0455C12.7149 17.99 12.6361 17.9103 12.5816 17.8145C12.5272 17.7187 12.499 17.6102 12.5 17.5V15.625H3.125C2.79348 15.625 2.47554 15.4933 2.24112 15.2589C2.0067 15.0245 1.875 14.7065 1.875 14.375V4.375C1.875 4.04348 2.0067 3.72554 2.24112 3.49112C2.47554 3.2567 2.79348 3.125 3.125 3.125H16.875C17.2065 3.125 17.5245 3.2567 17.7589 3.49112C17.9933 3.72554 18.125 4.04348 18.125 4.375V6.76016C18.5201 7.1385 18.8345 7.59291 19.0493 8.09601C19.2641 8.5991 19.3748 9.14047 19.3748 9.6875C19.3748 10.2345 19.2641 10.7759 19.0493 11.279C18.8345 11.7821 18.5201 12.2365 18.125 12.6148ZM12.5 14.375V12.6148C11.8189 11.958 11.3885 11.084 11.283 10.1437C11.1774 9.20337 11.4035 8.25571 11.922 7.46424C12.4406 6.67278 13.2192 6.08715 14.1234 5.80842C15.0277 5.52969 16.0008 5.57535 16.875 5.9375V4.375H3.125V14.375H12.5ZM16.875 13.4375C16.38 13.6443 15.8489 13.7508 15.3125 13.7508C14.7761 13.7508 14.245 13.6443 13.75 13.4375V16.4234L15 15.7078C15.0945 15.6538 15.2014 15.6254 15.3102 15.6254C15.419 15.6254 15.5259 15.6538 15.6203 15.7078L16.8703 16.4234L16.875 13.4375ZM18.125 9.6875C18.125 9.13124 17.9601 8.58747 17.651 8.12496C17.342 7.66245 16.9027 7.30196 16.3888 7.08909C15.8749 6.87622 15.3094 6.82052 14.7638 6.92904C14.2182 7.03756 13.7171 7.30543 13.3238 7.69876C12.9304 8.0921 12.6626 8.59324 12.554 9.13881C12.4455 9.68438 12.5012 10.2499 12.7141 10.7638C12.927 11.2777 13.2874 11.717 13.75 12.026C14.2125 12.335 14.7562 12.5 15.3125 12.5C15.6818 12.5 16.0476 12.4273 16.3888 12.2859C16.73 12.1446 17.0401 11.9374 17.3012 11.6762C17.5624 11.4151 17.7696 11.105 17.9109 10.7638C18.0523 10.4226 18.125 10.0568 18.125 9.6875Z" fill="currentColor"/>
</svg>

<svg xmlns="http://www.w3.org/2000/svg" width="20" height="20" fill="none" viewBox="0 0 20 20"><path fill="currentColor" d="M10 10.625a.625.625 0 0 1-.625.625h-3.75a.625.625 0 1 1 0-1.25h3.75a.625.625 0 0 1 .625.625M9.375 7.5h-3.75a.625.625 0 0 0 0 1.25h3.75a.625.625 0 0 0 0-1.25m8.75 5.115V17.5a.625.625 0 0 1-.937.547l-1.875-1.074-1.876 1.074a.624.624 0 0 1-.937-.547v-1.875H3.125a1.25 1.25 0 0 1-1.25-1.25v-10a1.25 1.25 0 0 1 1.25-1.25h13.75a1.25 1.25 0 0 1 1.25 1.25V6.76a4.053 4.053 0 0 1 0 5.855m-5.625 1.76v-1.76a4.062 4.062 0 0 1 4.375-6.677V4.375H3.125v10zm4.375-.937a4.05 4.05 0 0 1-3.125 0v2.985l1.25-.715a.63.63 0 0 1 .62 0l1.25.715zm1.25-3.75a2.812 2.812 0 1 0-5.624 0 2.812 2.812 0 0 0 5.624 0"/></svg>
